X: 4826
T: Boys Of The Town, The
R: jig
M: 6/8
K: Gmajor
|:D|GB/c/d GBd|edB dBD|GB/c/d GBd|edB AFD|
GB/c/d GBd|edB gB/c/d|edB AGA|BGF G2:|
|:B|def ge/f/g|afd edB|def ge/f/g|afd e2d|
[1 def ge/f/g|afd efg|edB ge/f/g|BG F G2:|
[2 def gb/b/b|fa/a/a efg|edB AGA|BGF G2||

